priv/static/svgs/icons_new/sport-archery.svg

<svg width="32" height="32" viewBox="0 0 32 32" fill="none" xmlns="http://www.w3.org/2000/svg">
<path d="M12.3262 10.3473L12.8047 9.86874C12.8047 9.86874 14.1209 6.32527 18.2595 6.6382C18.2595 6.6382 22.1405 6.88057 25.0888 6.38663L17.9804 7.54324C17.9804 7.54324 15.7745 7.82549 14.0871 11.1481L13.6085 11.6267M26.5 5.5C26.5 5.5 26.0306 6.12586 25.0918 6.38663M11.2554 11.418L9.86567 12.8078C9.86567 12.8078 6.32527 14.1209 6.6382 18.2595C6.6382 18.2595 6.88057 22.1405 6.38663 25.0888L7.54324 17.9804C7.54324 17.9804 7.82549 15.7745 11.1481 14.0871L12.5378 12.6974M5.5 26.5C5.5 26.5 6.12586 26.0306 6.38663 25.0918M6.57378 24.5058L24.5058 6.57684M8.61395 8.61395L22.8123 22.8123M19.229 19.137H21.6312L23.7205 21.2262H21.3612M19.14 19.229V21.6281L21.2293 23.7174V21.3581M8.27955 9.09562L7.87151 7.86844L9.09562 8.27648L8.27955 9.09562Z" stroke="black" stroke-miterlimit="10"/>
</svg>

<svg width="32" height="32" viewBox="0 0 32 32" fill="none" xmlns="http://www.w3.org/2000/svg">
  <symbol id="item" viewBox="0 0 32 32" stroke-width="1" fill="none">
    <path d="m12.326 10.347.479-.478s1.316-3.544 5.454-3.23c0 0 3.881.242 6.83-.252L17.98 7.543s-2.206.282-3.893 3.605l-.479.479M26.5 5.5s-.47.626-1.408.887m-13.837 5.031-1.39 1.39s-3.54 1.313-3.227 5.451c0 0 .243 3.881-.251 6.83l1.156-7.109s.282-2.206 3.605-3.893l1.39-1.39M5.5 26.5s.626-.47.887-1.408m.187-.586 17.932-17.93M8.614 8.615l14.198 14.198m-3.583-3.675h2.402l2.09 2.09h-2.36m-2.221-1.998v2.4l2.09 2.088v-2.359M8.28 9.096l-.408-1.228 1.224.408-.816.82Z" stroke="currentColor" stroke-miterlimit="10"/>
  </symbol>
</svg>
